!!!!SEGMENT: pl-kc--40102-iii-1-saf--002-037_zielenski-mikolaj--communiones-totius-anni-motteto-a-4-adoramus-te-christe.krn
!!!cenid: 16xx:1568
!!!COM: Zieleński, Mikołaj
!!!COM-rismID: pe30013481
!!!CDT: <1611->1611
!!!CNT: Polish
!!!GTL: Communiones totius anni
!!!OTL: Motteto a 4./Adoramus te Christe
!!!OMV: 037
!!!PDT: 1611
!!!AGN:
!!!YEC: Copyright 2022 Narodowy Instytut Fryderyka Chopina (https://polishscores.org)
!!!YEM: License CC-BY-4.0 (https://creativecommons.org/licenses/by/4.0)
!!!SMS-siglum: PL-Kc
!!!SMS-shelfmark: 40102 III/1 Saf.
!!!SMS-shelfwork: 002-037 G
!!!SMS-variant:
!!!SMS-altvar:
!!!NIFC-rismSourceID: 990069887
!!!NIFC-rismChildID: 990069887
!!!NIFC-islandoraID: none
!!!URL-pdf-islandora:
!!!URL-scan: https://cyfrowe.mnk.pl/dlibra/publication/24235/edition/23926/content?ref=desc @EN{Scan on The National Museum in Krakow Website} @PL{Skany w portalu Biblioteka Cyfrowa Muzeum Narodowego w Krakowie}
!!!IIIF:
!!!ONB-nifc: UWAGA: str. 63. Numer w źródle: 43. Uwaga: W xml metrum 2/1 do źródłowego C| i odpowiednio 3/1 do 3/2
!!!AIN: 4 organ
!!!key:
**kern	**kern	**kern	**kern
*part4	*part3	*part2	*part1
*staff4	*staff3	*staff2	*staff1
*I"	*I"	*I"	*I"Organo
*I'	*I'	*I'	*I'org
*Iorgan	*Iorgan	*Iorgan	*Iorgan
*ICklav	*ICklav	*ICklav	*ICklav
*clefF4	*clefC4	*clefC3	*clefC1
*k[]	*k[]	*k[]	*k[]
*a:	*a:	*a:	*a:
*M2/1	*M2/1	*M2/1	*M2/1
*met(C|)	*met(C|)	*met(C|)	*met(C|)
=1	=1	=1	=1
!	!	!	!LO:TX:a:t=43. Motetto a 4.
!	!	!	!LO:TX:b:t=Adoramus te Chriſte
1.E	1.G#X	1B	1.e
.	.	1B	.
2E\	2G#/	.	2e/
=2-	=2-	=2-	=2-
1C#X	2A/	0A	1e
.	2E/	.	.
[<1D	2.F#X/	.	2.d/
.	4Gny/	.	4e/
=3	=3	=3	=3
*	*lig	*	*
1D]	1A	1.d	1.f#X
1BB	1B	.	.
.	.	2d\	2g/
*	*Xlig	*	*
=4-	=4-	=4-	=4-
*	*lig	*	*
1E	1B	1e	1g#X
!	!LO:TX:t=P:problem=# przed 1B	!	!
2AA/	1c#X	1e	[y1a
2A\	.	.	.
*	*Xlig	*	*
=5	=5	=5	=5
!	!	!	!LO:N:vis=4:xstem:cue
2.F#X\	1.d	2r	2a\]
.	.	2a\	2dd\
4F#\	.	.	.
2G\	.	1.g	2.b\
2G\	1e\	.	.
.	.	.	4b\
=6-	=6-	=6-	=6-
0A	.	.	2cc#X\
!	!	!LO:SIC:v:o=2f\	!
.	1d	2f#\	2dd\
.	.	(<1e	2ee\
.	2c#X\	.	2a\
*clefF3	*	*	*
=7	=7	=7	=7
*lig	*	*	*
1D	2d\	1f#X)	2a\
.	2A/	.	1dd
1BB	4d\	2g\	.
.	4c\	.	.
.	4B\	2d\	2.g/
.	4A/	.	.
*Xlig	*	*	*
=8-	=8-	=8-	=8-
2C/	4G/	2.e\	.
.	4E/	.	4g/
2C/	1A	.	2cc\
.	.	8d\	.
.	.	8e\	.
2.D/	.	1fny	2a\
.	[y2d\	.	[<2b\
4D/	.	.	.
*clefF4	*	*	*
=9	=9	=9	=9
!	!LO:N:xstem:cue	!	!
1.E	4d\]	1e	2b\]
.	4c\	.	.
.	4c\	.	2.a\
.	8B\	.	.
.	8A\	.	.
.	1B	2r	.
.	.	.	8g#X/
!	!	!	!LO:SIC:v:o=8f/
.	.	.	8f#/
2E\	.	2e\	2g#/
=10-	=10-	=10-	=10-
1FF	1c	2f\	0a
.	.	2e\	.
1F	2r	2d\	.
.	2A/	4c/	.
.	.	4d\	.
=11	=11	=11	=11
1E	2c\	4e\	2r
.	.	4f\	.
.	2B\	4g\	2b\
.	.	2e\	.
2r	2A/	.	2cc\
.	.	8d\	.
.	.	8c\	.
2BB/	2G/	2d\	2b\
=12-	=12-	=12-	=12-
2C/	4E/	2e\	2a\
.	8D/	.	.
.	8C/	.	.
2BB/	2D/	4r	2g#X/
.	.	4B/	.
2AA/	1E	2c/	2a\
2GG#X/	.	2B/	4b\
.	.	.	4b\
=13	=13	=13	=13
0AA	2r	2A/	2.cc\
.	2E/	2c/	.
.	.	.	4b\
.	2F/	4c/	4a\
.	.	4d\	4b\
.	2E/	4e\	4cc\
.	.	4c/	4a\
=14-	=14-	=14-	=14-
1D	2D/	1f	2b\
.	4A/	.	4a\
.	4A/	.	2a\
2r	2c\	1e	.
.	.	.	8g#X/
!	!	!	!LO:SIC:v:o=8f/
.	.	.	8f#/
2E\	2B\	.	2g#/
=15	=15	=15	=15
2F\	2A/	2r	0a
2E\	2G/	2e\	.
2D/	4F/	2f\	.
.	4G/	.	.
2C/	4A/	2.e\	.
.	4E/	.	.
=16-	=16-	=16-	=16-
1F	2A/	.	2r
.	.	8d\	.
.	.	8c\	.
.	1A	2d\	2a\
1E	.	[<1e	2cc\
.	2G/	.	2b\
=17	=17	=17	=17
2r	2c\	2e\]	2a\
2BB/	2B\	2d\	2g/
2C/	2A/	2c/	4e/
.	.	.	4f/
2BB/	2G/	2d\	4g/
.	.	.	4e/
=18-	=18-	=18-	=18-
2AA/	2C/	2r	4f/
.	.	.	4e/
2GG/	2G/	2B/	2.e/
2AA/	1F	2c/	.
.	.	.	8d/
.	.	.	8c/
2BB/	.	4B/	2d/
.	.	4A/	.
=19	=19	=19	=19
2.C/	2E/	2G/	1.e
.	2.A/	2c/	.
4D/	.	.	.
1E	.	1B	.
.	8G#X/	.	.
!	!LO:SIC:v:o=8F/	!	!
.	8F#/	.	.
.	4G#X/	.	1ee\
.	8F/	.	.
.	8G#/	.	.
=20-	=20-	=20-	=20-
2.F#X\	2A/	2A/	.
.	2A/	2a\	1dd
8E\	.	.	.
8F#\	.	.	.
2G#X\	2B\	2d\	.
2A\	2e\	[<2a\	2cc#X\
*custos:B	*custos:d	*custos:a	*custos:dd
!!linebreak:original
=21	=21	=21	=21
*	*lig	*	*
!LO:SIC:v:o=1B#X	!	!	!
1B	1d	2a\]	1dd
.	.	4g#X\	.
!	!	!LO:SIC:v:o=4f\	!
.	.	4f#\	.
1E	1B	1g#	1.ee
*	*Xlig	*	*
=22-	=22-	=22-	=22-
*lig	*	*	*
1C#X	0A	2a\	.
.	.	2e\	2a\
1D	.	1f	1a
*Xlig	*	*	*
=23	=23	=23	=23
2AA/	2r	1.e	1.cc
1A	4A/	.	.
.	4B\	.	.
.	4c\	.	.
.	4d\	.	.
2E\	4e\	2g\	2b\
.	4d\	.	.
=24-	=24-	=24-	=24-
*	*	*lig	*lig
2F\	4c\	1f	1a
.	4A\	.	.
4E\	2d\	.	.
4D/	.	.	.
2.E\	2B\	1e	1g
.	[<2c\	.	.
8D\	.	.	.
8E\	.	.	.
*	*	*Xlig	*Xlig
=25	=25	=25	=25
1F	2c\]	2A/	0f
.	1A	1d	.
1D	.	.	.
.	2.B\	2d\	.
=26-	=26-	=26-	=26-
0E	.	1c	0e
.	4A/	.	.
.	2.A/	.	.
.	.	1B	.
.	8G#X/	.	.
!	!LO:SIC:v:o=8F/	!	!
.	8F#/	.	.
.	2G#/	.	.
=27	=27	=27	=27
*	*	*lig	*
1AA	2A/	1c	2e/
.	2E/	.	2a\
0r	1F	1A	2d/
.	.	.	1dd\
*	*	*Xlig	*
=28-	=28-	=28-	=28-
.	1E	1.G	.
.	.	.	2cc#X\
2r	1D	.	1dd
2BB/	.	2F/	.
=29	=29	=29	=29
1C	1E	2E/	2g/
.	.	1A	2cc\
1BB	1D	.	1dd
.	.	2G#X/	.
=30-	=30-	=30-	=30-
*lig	*	*	*
1AA	2.E/	4A/	1cc
.	.	4B/	.
.	.	4c/	.
.	4F/	4d\	.
1GG	2G/	4e\	1b
.	.	4f\	.
.	[y2d\	2g\	.
*Xlig	*	*	*
=31	=31	=31	=31
*lig	*	*	*
!	!LO:N:xstem:cue	!	!
1D	4d\]	2g\	1a
.	4c\	.	.
.	4A\	2f\	.
.	4B\	.	.
*col	*	*	*
2.E\	2c\	1.e	1g
.	2B\	.	.
*Xlig	*	*	*
4D/	.	.	.
*Xcol	*	*	*
=32-	=32-	=32-	=32-
2C/	2r	.	2.cc\
2AA/	2E/	1c	.
.	.	.	4b\
2D/	1F	.	2a\
2D/	.	2B/	4g/
.	.	.	4f/
=33	=33	=33	=33
1C	1E	2c/	4a\
.	.	.	4g\
.	.	1G	2cc\
1r	1D	.	2b\
.	.	2F#X/	2a\
=34-	=34-	=34-	=34-
2r	1E	2G/	1g
2C/	.	4r	.
.	.	4e\	.
2AA/	1A	1f	1r
[y2D/	.	.	.
=35	=35	=35	=35
!LO:N:xstem:cue	!	!	!
4D/]	2G#X/	1e	1r
8C#X/	.	.	.
8BB/	.	.	.
2C#/	2.A/	.	.
2D/	.	2d\	2r
.	8G#X/	.	.
!	!LO:SIC:v:o=8F/	!	!
.	8F#/	.	.
2E\	2G#/	4c/	2b\
.	.	4B/	.
=36-	=36-	=36-	=36-
1F	1A	4d\	2a\
.	.	4c/	.
.	.	2f\	2.dd\
1E	1r	[y1g	.
.	.	.	8cc#X\
.	.	.	8b\
.	.	.	2cc#\
=37	=37	=37	=37
!	!	!LO:N:vis=4:xstem:cue	!
1D	2r	2g\]	1dd
.	2A/	2f\	.
2E\	2G/	1e	1r
2C/	2.c\	.	.
=38-	=38-	=38-	=38-
2F\	.	1d	2r
.	8B\	.	.
.	8A\	.	.
2G\	4B\	.	2b\
.	8A\	.	.
.	8B\	.	.
1C	1c	2.e\	2g/
.	.	.	[y2cc\
.	.	4f\	.
=39	=39	=39	=39
!	!	!	!LO:N:xstem:cue
2r	1G	2g\	4cc\]
.	.	.	8b\
.	.	.	8a\
2E\	.	4r	2b\
.	.	4g\	.
2C/	2r	2e\	2.cc\
1F\	2A/	1a\	.
.	.	.	8b\
.	.	.	8cc\
=40-	=40-	=40-	=40-
.	2G/	.	2dd\
2E\	1c	2g\	1ee
1F	.	1a	.
.	4B\	.	2dd\
.	4A/	.	.
=41	=41	=41	=41
2E\	4c\	2r	2.ee\
.	4B\	.	.
1C	4c\	1g	.
.	4d\	.	4dd\
.	4e\	.	4cc\
.	4d\	.	4b\
1F\	4c\	2f\	1a\
.	4B\	.	.
=42-	=42-	=42-	=42-
.	2A/	2c/	.
1D	2A/	1f	4dd\
.	.	.	4cc\
.	2d\	.	4b\
.	.	.	4a\
2AA/	2c\	[<2e\	[y2a\
=43	=43	=43	=43
!	!	!	!LO:N:xstem:cue
1E	2.B\	2e\]	4a\]
.	.	.	8g#X/
!	!	!	!LO:SIC:v:o=8f/
.	.	.	8f#/
.	.	2e\	2g#/
.	4B\	.	.
0AA	2c\	1e	2a\
.	4c\	.	2ee\
.	4d\	.	.
=44-	=44-	=44-	=44-
.	4e\	1A	2cc\
.	4d\	.	.
.	4c\	.	2.ee\
.	4B\	.	.
1AA	2A/	2.e\	.
.	.	.	4dd\
.	1E/	.	4cc\
.	.	4d\	4b\
=45-	=45-	=45-	=45-
1AA	.	2c/	4a\
.	.	.	4e/
.	1c	2e\	1a
0.El	.	1.e	.
.	4B\	.	4g#Xi/
!	!	!	!LO:SIC:v:o=4f/
.	4A/	.	4f#/
=46-	=46-	=46-	=46-
.	0Bl	.	0g#Xil
.	.	2e\	.
.	.	1el	.
!LO:TX:b:t=Finis Quatuor Vocum.	!	!	!
==	==	==	==
*-	*-	*-	*-
!!!system-decoration: [s1,s2,s3,s4]
!!!RDF**kern: l = terminal long
!!!RDF**kern: i = editorial accidental
!!!RDF**kern: > = above
!!!RDF**kern: < = below
!!!ENC: Katarzyna Serwa
!!!END: 2021-12-25
!!!ENC: Andrzej Gręziak
!!!END: 2021-12-21
